X: 28435
T: Mullingar Lea, The
R: reel
M: 4/4
K: Edorian
D|B,EE/E/E E2DB|ADFD FAAE|Bee/e/e edef|dDD/D/D FEE:|
F|Eeef fedB|defe dBAd|Beed efab|afed e2df|
abaf edef|dBAF ABde|fdec dBBc|dDD/D/D FEE||

